X:1773
T:Bonny Lass To Marry Me. BF11.32
M:2/2
L:1/8
Q:180
C:Browne A hand
S:MS11,c1800?.,Browne Coll.,Lakes
R:Reel
O:England
A:Lakes
Z:vmp.Cherri Graebe.
K:G major
zD|G2BG AGBG|D2BG A>GEA|!G/2G/2G BG cBAB|GBGE D/2D/2DD2:|!
|:dgdB A>GAB|dgBg cBE2|!(de/2f/2g)B A>GAB|GBGE ED D2:||


